X: 1
T: Chinese, The
M: 2/4
L: 1/8
R: polka
K: Dmaj
d/B/A/F/ D D/D/ | B,/D/D/B,/ D D/D/ | B,/D/D/B,/ D A/G/ | F/D/A/F/ E>F |
A A/F/ D D/D/ | B,/D/D/B,/ D A/G/ | F/D/A/D/ B/D/A/D/ | E/D/E/F/ D2 |
A A/F/ D D/D/ | B,/D/D/B,/ D D/D/ | B,/D/D/B,/ D A/G/ | F/D/A/F/ E>F |
A A/F/ D D/D/ | B,/D/D/B,/ D A/G/ | F/D/A/D/ B/D/A/D/ | E/D/E/F/ D2 |
E E/E/ E/A/A/A/ | B A/B/ c A | E E/E/ E/d/d/d/ | c/B/c/B/ A2 |
E E/E/ E/A/A/A/ | B A/B/ c A | E E/E/ E/d/d/d/ | c/B/c/B/ A2 |
